static/img/kroki/559d668e5e98c2110d3376e0fc60459d.svg

<?xml version="1.0" encoding="us-ascii" standalone="no"?><svg xmlns="http://www.w3.org/2000/svg" xmlns:xlink="http://www.w3.org/1999/xlink" contentStyleType="text/css" height="352px" preserveAspectRatio="none" style="width:604px;height:352px;" version="1.1" viewBox="0 0 604 352" width="604px" zoomAndPan="magnify"><defs/><g><!--class digitalocean_droplet--><g id="elem_digitalocean_droplet"><rect codeLine="22" fill="#3D176E" height="39.7891" id="digitalocean_droplet" rx="2.5" ry="2.5" style="stroke:#000D19;stroke-width:0.5;" width="211" x="232.35" y="206.58"/><ellipse cx="247.35" cy="226.4745" fill="#ADD1B2" rx="11" ry="11" style="stroke:#181818;stroke-width:1.0;"/><path d="M250.3188,232.1152 Q249.7406,232.412 249.1,232.5527 Q248.4594,232.7089 247.7563,232.7089 Q245.2563,232.7089 243.9281,231.0683 Q242.6156,229.412 242.6156,226.287 Q242.6156,223.162 243.9281,221.5058 Q245.2563,219.8495 247.7563,219.8495 Q248.4594,219.8495 249.1,220.0058 Q249.7563,220.162 250.3188,220.4589 L250.3188,223.1777 Q249.6938,222.5995 249.1,222.3339 Q248.5063,222.0527 247.8813,222.0527 Q246.5375,222.0527 245.85,223.1308 Q245.1625,224.1933 245.1625,226.287 Q245.1625,228.3808 245.85,229.4589 Q246.5375,230.5214 247.8813,230.5214 Q248.5063,230.5214 249.1,230.2558 Q249.6938,229.9745 250.3188,229.3964 L250.3188,232.1152 Z " fill="#000000"/><text fill="#D9B8FF" font-family="Helvetica" font-size="17" lengthAdjust="spacing" textLength="169" x="266.35" y="232.3598">digitalocean_droplet</text></g><!--class digitalocean_floating_ip--><g id="elem_digitalocean_floating_ip"><rect codeLine="24" fill="#3D176E" height="39.7891" id="digitalocean_floating_ip" rx="2.5" ry="2.5" style="stroke:#000D19;stroke-width:0.5;" width="240" x="137.85" y="306.37"/><ellipse cx="152.85" cy="326.2645" fill="#ADD1B2" rx="11" ry="11" style="stroke:#181818;stroke-width:1.0;"/><path d="M155.8188,331.9052 Q155.2406,332.202 154.6,332.3427 Q153.9594,332.4989 153.2563,332.4989 Q150.7563,332.4989 149.4281,330.8583 Q148.1156,329.202 148.1156,326.077 Q148.1156,322.952 149.4281,321.2958 Q150.7563,319.6395 153.2563,319.6395 Q153.9594,319.6395 154.6,319.7958 Q155.2563,319.952 155.8188,320.2489 L155.8188,322.9677 Q155.1938,322.3895 154.6,322.1239 Q154.0063,321.8427 153.3813,321.8427 Q152.0375,321.8427 151.35,322.9208 Q150.6625,323.9833 150.6625,326.077 Q150.6625,328.1708 151.35,329.2489 Q152.0375,330.3114 153.3813,330.3114 Q154.0063,330.3114 154.6,330.0458 Q155.1938,329.7645 155.8188,329.1864 L155.8188,331.9052 Z " fill="#000000"/><text fill="#D9B8FF" font-family="Helvetica" font-size="17" lengthAdjust="spacing" textLength="198" x="171.85" y="332.1498">digitalocean_floating_ip</text></g><!--class digitalocean_project--><g id="elem_digitalocean_project"><rect codeLine="26" fill="#3D176E" height="39.7891" id="digitalocean_project" rx="2.5" ry="2.5" style="stroke:#000D19;stroke-width:0.5;" width="209" x="77.35" y="106.79"/><ellipse cx="92.35" cy="126.6845" fill="#ADD1B2" rx="11" ry="11" style="stroke:#181818;stroke-width:1.0;"/><path d="M95.3188,132.3252 Q94.7406,132.622 94.1,132.7627 Q93.4594,132.9189 92.7563,132.9189 Q90.2563,132.9189 88.9281,131.2783 Q87.6156,129.622 87.6156,126.497 Q87.6156,123.372 88.9281,121.7158 Q90.2563,120.0595 92.7563,120.0595 Q93.4594,120.0595 94.1,120.2158 Q94.7563,120.372 95.3188,120.6689 L95.3188,123.3877 Q94.6938,122.8095 94.1,122.5439 Q93.5063,122.2627 92.8813,122.2627 Q91.5375,122.2627 90.85,123.3408 Q90.1625,124.4033 90.1625,126.497 Q90.1625,128.5908 90.85,129.6689 Q91.5375,130.7314 92.8813,130.7314 Q93.5063,130.7314 94.1,130.4658 Q94.6938,130.1845 95.3188,129.6064 L95.3188,132.3252 Z " fill="#000000"/><text fill="#D9B8FF" font-family="Helvetica" font-size="17" lengthAdjust="spacing" textLength="167" x="111.35" y="132.5698">digitalocean_project</text></g><!--class digitalocean_region--><g id="elem_digitalocean_region"><rect codeLine="28" fill="#3D176E" height="39.7891" id="digitalocean_region" rx="2.5" ry="2.5" style="stroke:#000D19;stroke-width:0.5;" width="205" x="392.35" y="106.79"/><ellipse cx="407.35" cy="126.6845" fill="#ADD1B2" rx="11" ry="11" style="stroke:#181818;stroke-width:1.0;"/><path d="M410.3187,132.3252 Q409.7406,132.622 409.1,132.7627 Q408.4594,132.9189 407.7562,132.9189 Q405.2562,132.9189 403.9281,131.2783 Q402.6156,129.622 402.6156,126.497 Q402.6156,123.372 403.9281,121.7158 Q405.2562,120.0595 407.7562,120.0595 Q408.4594,120.0595 409.1,120.2158 Q409.7562,120.372 410.3187,120.6689 L410.3187,123.3877 Q409.6937,122.8095 409.1,122.5439 Q408.5062,122.2627 407.8812,122.2627 Q406.5375,122.2627 405.85,123.3408 Q405.1625,124.4033 405.1625,126.497 Q405.1625,128.5908 405.85,129.6689 Q406.5375,130.7314 407.8812,130.7314 Q408.5062,130.7314 409.1,130.4658 Q409.6937,130.1845 410.3187,129.6064 L410.3187,132.3252 Z " fill="#000000"/><text fill="#D9B8FF" font-family="Helvetica" font-size="17" lengthAdjust="spacing" textLength="163" x="426.35" y="132.5698">digitalocean_region</text></g><!--class digitalocean_team--><g id="elem_digitalocean_team"><rect codeLine="30" fill="#3D176E" height="39.7891" id="digitalocean_team" rx="2.5" ry="2.5" style="stroke:#000D19;stroke-width:0.5;" width="196" x="162.85" y="7"/><ellipse cx="177.85" cy="26.8945" fill="#ADD1B2" rx="11" ry="11" style="stroke:#181818;stroke-width:1.0;"/><path d="M180.8188,32.5352 Q180.2406,32.832 179.6,32.9727 Q178.9594,33.1289 178.2563,33.1289 Q175.7563,33.1289 174.4281,31.4883 Q173.1156,29.832 173.1156,26.707 Q173.1156,23.582 174.4281,21.9258 Q175.7563,20.2695 178.2563,20.2695 Q178.9594,20.2695 179.6,20.4258 Q180.2563,20.582 180.8188,20.8789 L180.8188,23.5977 Q180.1938,23.0195 179.6,22.7539 Q179.0063,22.4727 178.3813,22.4727 Q177.0375,22.4727 176.35,23.5508 Q175.6625,24.6133 175.6625,26.707 Q175.6625,28.8008 176.35,29.8789 Q177.0375,30.9414 178.3813,30.9414 Q179.0063,30.9414 179.6,30.6758 Q180.1938,30.3945 180.8188,29.8164 L180.8188,32.5352 Z " fill="#000000"/><text fill="#D9B8FF" font-family="Helvetica" font-size="17" lengthAdjust="spacing" textLength="154" x="196.85" y="32.7798">digitalocean_team</text></g><!--link digitalocean_droplet to digitalocean_floating_ip--><g id="link_digitalocean_droplet_digitalocean_floating_ip"><path codeLine="32" d="M322.04,246.8 C309.22,262.47 291.09,284.63 277.37,301.41 " fill="none" id="digitalocean_droplet-to-digitalocean_floating_ip" style="stroke:#1A83AF;stroke-width:2.0;"/><polygon fill="#1A83AF" points="273.62,304.99,282.4078,300.5432,276.78,301.1151,276.208,295.4873,273.62,304.99" style="stroke:#1A83AF;stroke-width:2.0;"/></g><!--link digitalocean_project to digitalocean_droplet--><g id="link_digitalocean_project_digitalocean_droplet"><path codeLine="33" d="M212.67,147.01 C238.42,163.15 275.15,186.17 302.17,203.11 " fill="none" id="digitalocean_project-to-digitalocean_droplet" style="stroke:#1A83AF;stroke-width:2.0;"/><polygon fill="#1A83AF" points="306.09,206.2,300.5978,198.0247,301.8564,203.5397,296.3414,204.7984,306.09,206.2" style="stroke:#1A83AF;stroke-width:2.0;"/></g><!--link digitalocean_project to digitalocean_floating_ip--><g id="link_digitalocean_project_digitalocean_floating_ip"><path codeLine="34" d="M185.8,147.04 C191,170.91 201.11,212.48 214.85,246.37 C222.59,265.46 233.79,285.85 242.82,301.12 " fill="none" id="digitalocean_project-to-digitalocean_floating_ip" style="stroke:#1A83AF;stroke-width:2.0;"/><polygon fill="#1A83AF" points="245.79,305.09,244.5895,295.3146,243.2175,300.8025,237.7296,299.4305,245.79,305.09" style="stroke:#1A83AF;stroke-width:2.0;"/></g><!--link digitalocean_region to digitalocean_droplet--><g id="link_digitalocean_region_digitalocean_droplet"><path codeLine="35" d="M463.83,147.01 C437.92,163.15 400.95,186.17 373.76,203.11 " fill="none" id="digitalocean_region-to-digitalocean_droplet" style="stroke:#1A83AF;stroke-width:2.0;"/><polygon fill="#1A83AF" points="369.8,206.2,379.5541,204.8368,374.044,203.5564,375.3243,198.0464,369.8,206.2" style="stroke:#1A83AF;stroke-width:2.0;"/></g><!--link digitalocean_region to digitalocean_floating_ip--><g id="link_digitalocean_region_digitalocean_floating_ip"><path codeLine="36" d="M494.41,147.05 C492.81,172.86 486.27,218.5 460.85,246.37 C435.45,274.21 399.06,292.33 364.08,304.08 " fill="none" id="digitalocean_region-to-digitalocean_floating_ip" style="stroke:#1A83AF;stroke-width:2.0;"/><polygon fill="#1A83AF" points="359.48,305.91,369.2787,306.903,364.2305,304.3503,366.7832,299.3022,359.48,305.91" style="stroke:#1A83AF;stroke-width:2.0;"/></g><!--link digitalocean_team to digitalocean_droplet--><g id="link_digitalocean_team_digitalocean_droplet"><path codeLine="37" d="M272.87,47.09 C282.27,62.71 295.15,85.58 303.85,106.79 C316.72,138.19 326.67,176.14 332.4,200.53 " fill="none" id="digitalocean_team-to-digitalocean_droplet" style="stroke:#1A83AF;stroke-width:2.0;"/><polygon fill="#1A83AF" points="333.69,205.13,335.5555,195.4594,332.5615,200.259,327.762,197.265,333.69,205.13" style="stroke:#1A83AF;stroke-width:2.0;"/></g><!--link digitalocean_team to digitalocean_floating_ip--><g id="link_digitalocean_team_digitalocean_floating_ip"><path codeLine="38" d="M162.48,42.22 C123.82,53.19 83.18,72.57 59.85,106.79 C6,185.79 136.11,265.8 210.42,303.3 " fill="none" id="digitalocean_team-to-digitalocean_floating_ip" style="stroke:#1A83AF;stroke-width:2.0;"/><polygon fill="#1A83AF" points="214.67,305.93,208.3993,298.3354,210.195,303.6997,204.8307,305.4954,214.67,305.93" style="stroke:#1A83AF;stroke-width:2.0;"/></g><!--link digitalocean_team to digitalocean_project--><g id="link_digitalocean_team_digitalocean_project"><path codeLine="39" d="M245.24,47.22 C232.58,62.89 214.68,85.05 201.12,101.83 " fill="none" id="digitalocean_team-to-digitalocean_project" style="stroke:#1A83AF;stroke-width:2.0;"/><polygon fill="#1A83AF" points="197.43,105.41,206.1999,100.9279,200.5743,101.5224,199.9798,95.8969,197.43,105.41" style="stroke:#1A83AF;stroke-width:2.0;"/></g><!--link digitalocean_team to digitalocean_region--><g id="link_digitalocean_team_digitalocean_region"><path codeLine="40" d="M307.08,47.22 C346.34,63.63 402.63,87.15 443.33,104.16 " fill="none" id="digitalocean_team-to-digitalocean_region" style="stroke:#1A83AF;stroke-width:2.0;"/><polygon fill="#1A83AF" points="447.71,106.41,440.9486,99.2487,443.0967,104.4819,437.8636,106.63,447.71,106.41" style="stroke:#1A83AF;stroke-width:2.0;"/></g><!--SRC=[dP11Jy9048Nl_8fDE9DGYG8Naqf2z4ACU3E6BDtPihBTRMO72Hh_knIgMTikJRtE-sRUUxDH0XXaEHrO1jaQqFNSLfcS8yzOZ6ZtCwijihwKN8x6LN5k3RK22vu1kmVz3gGINYMUDohP6d2ENNdI7K-sATgT4UVpXDouemI6F6gckNCn4QhrZi0B8wRhYPHLidgqFnBH-0Pgc4K1M2B3uL14qohIQdMnzo-nL1_08lzf2qjGYrcpE54NKnQ45x9Mz4SFPdpaGYYJicjlzdJEX0RmptovuSBk2rfoxNmRHu1WwP33hDOAfXCXnutmGmXEYiyneL95NDi4k5a9jBa6Of-zhoPPQilf66sbyX2Iets397W18LNMX5I2O_92QmmrUEb7yMGKpry7jy5SlSOquTNoUDUre6DPiADXwrRGx_IoZcujE__rAh_MQUTS_1i0]--></g></svg>

<svg xmlns="http://www.w3.org/2000/svg" width="604" height="352" preserveAspectRatio="none" style="width:604px;height:352px"><rect width="211" height="39.789" x="232.35" y="206.58" fill="#3D176E" rx="2.5" ry="2.5" style="stroke:#000d19;stroke-width:.5"/><circle cx="247.35" cy="226.475" r="11" fill="#ADD1B2" style="stroke:#181818;stroke-width:1"/><path d="M250.319 232.115q-.578.297-1.219.438-.64.156-1.344.156-2.5 0-3.828-1.64-1.312-1.657-1.312-4.782t1.312-4.781q1.328-1.656 3.828-1.656.703 0 1.344.156.656.156 1.219.453v2.719q-.625-.578-1.219-.844-.594-.281-1.219-.281-1.344 0-2.031 1.078-.688 1.062-.688 3.156 0 2.094.688 3.172.688 1.062 2.031 1.062.625 0 1.219-.265.594-.281 1.219-.86v2.72Z"/><text x="266.35" y="232.36" fill="#D9B8FF" font-family="Helvetica" font-size="17" textLength="169">digitalocean_droplet</text><rect width="240" height="39.789" x="137.85" y="306.37" fill="#3D176E" rx="2.5" ry="2.5" style="stroke:#000d19;stroke-width:.5"/><circle cx="152.85" cy="326.264" r="11" fill="#ADD1B2" style="stroke:#181818;stroke-width:1"/><path d="M155.819 331.905q-.578.297-1.219.438-.64.156-1.344.156-2.5 0-3.828-1.64-1.312-1.657-1.312-4.782t1.312-4.781q1.328-1.656 3.828-1.656.703 0 1.344.156.656.156 1.219.453v2.719q-.625-.579-1.219-.844-.594-.281-1.219-.281-1.344 0-2.031 1.078-.688 1.062-.688 3.156 0 2.094.688 3.172.688 1.062 2.031 1.062.625 0 1.219-.265.594-.281 1.219-.86v2.72Z"/><text x="171.85" y="332.15" fill="#D9B8FF" font-family="Helvetica" font-size="17" textLength="198">digitalocean_floating_ip</text><rect width="209" height="39.789" x="77.35" y="106.79" fill="#3D176E" rx="2.5" ry="2.5" style="stroke:#000d19;stroke-width:.5"/><circle cx="92.35" cy="126.684" r="11" fill="#ADD1B2" style="stroke:#181818;stroke-width:1"/><path d="M95.319 132.325q-.578.297-1.219.438-.64.156-1.344.156-2.5 0-3.828-1.64-1.312-1.657-1.312-4.782t1.312-4.781q1.328-1.656 3.828-1.656.703 0 1.344.156.656.156 1.219.453v2.719q-.625-.579-1.219-.844-.594-.281-1.219-.281-1.344 0-2.031 1.078-.688 1.062-.688 3.156 0 2.094.688 3.172.688 1.062 2.031 1.062.625 0 1.219-.265.594-.281 1.219-.86v2.72Z"/><text x="111.35" y="132.57" fill="#D9B8FF" font-family="Helvetica" font-size="17" textLength="167">digitalocean_project</text><rect width="205" height="39.789" x="392.35" y="106.79" fill="#3D176E" rx="2.5" ry="2.5" style="stroke:#000d19;stroke-width:.5"/><circle cx="407.35" cy="126.684" r="11" fill="#ADD1B2" style="stroke:#181818;stroke-width:1"/><path d="M410.319 132.325q-.578.297-1.219.438-.64.156-1.344.156-2.5 0-3.828-1.64-1.312-1.657-1.312-4.782t1.312-4.781q1.328-1.656 3.828-1.656.703 0 1.344.156.656.156 1.219.453v2.719q-.625-.579-1.219-.844-.594-.281-1.219-.281-1.343 0-2.031 1.078-.688 1.062-.688 3.156 0 2.094.688 3.172.688 1.062 2.031 1.062.625 0 1.219-.265.594-.281 1.219-.86v2.72Z"/><text x="426.35" y="132.57" fill="#D9B8FF" font-family="Helvetica" font-size="17" textLength="163">digitalocean_region</text><rect width="196" height="39.789" x="162.85" y="7" fill="#3D176E" rx="2.5" ry="2.5" style="stroke:#000d19;stroke-width:.5"/><circle cx="177.85" cy="26.895" r="11" fill="#ADD1B2" style="stroke:#181818;stroke-width:1"/><path d="M180.819 32.535q-.578.297-1.219.438-.64.156-1.344.156-2.5 0-3.828-1.64-1.312-1.657-1.312-4.782t1.312-4.781q1.328-1.656 3.828-1.656.703 0 1.344.156.656.156 1.219.453v2.719q-.625-.578-1.219-.844-.594-.281-1.219-.281-1.344 0-2.031 1.078-.688 1.062-.688 3.156 0 2.094.688 3.172.688 1.062 2.031 1.062.625 0 1.219-.265.594-.281 1.219-.86v2.72Z"/><text x="196.85" y="32.78" fill="#D9B8FF" font-family="Helvetica" font-size="17" textLength="154">digitalocean_team</text><path fill="none" d="M322.04 246.8c-12.82 15.67-30.95 37.83-44.67 54.61" style="stroke:#1a83af;stroke-width:2"/><path fill="#1A83AF" d="m273.62 304.99 8.788-4.447-5.628.572-.572-5.628-2.588 9.503z" style="stroke:#1a83af;stroke-width:2"/><path fill="none" d="M212.67 147.01c25.75 16.14 62.48 39.16 89.5 56.1" style="stroke:#1a83af;stroke-width:2"/><path fill="#1A83AF" d="m306.09 206.2-5.492-8.175 1.258 5.515-5.515 1.258 9.749 1.402z" style="stroke:#1a83af;stroke-width:2"/><path fill="none" d="M185.8 147.04c5.2 23.87 15.31 65.44 29.05 99.33 7.74 19.09 18.94 39.48 27.97 54.75" style="stroke:#1a83af;stroke-width:2"/><path fill="#1A83AF" d="m245.79 305.09-1.2-9.775-1.373 5.488-5.487-1.373 8.06 5.66z" style="stroke:#1a83af;stroke-width:2"/><path fill="none" d="M463.83 147.01c-25.91 16.14-62.88 39.16-90.07 56.1" style="stroke:#1a83af;stroke-width:2"/><path fill="#1A83AF" d="m369.8 206.2 9.754-1.363-5.51-1.28 1.28-5.51-5.524 8.153z" style="stroke:#1a83af;stroke-width:2"/><path fill="none" d="M494.41 147.05c-1.6 25.81-8.14 71.45-33.56 99.32-25.4 27.84-61.79 45.96-96.77 57.71" style="stroke:#1a83af;stroke-width:2"/><path fill="#1A83AF" d="m359.48 305.91 9.799.993-5.048-2.553 2.552-5.048-7.303 6.608z" style="stroke:#1a83af;stroke-width:2"/><path fill="none" d="M272.87 47.09c9.4 15.62 22.28 38.49 30.98 59.7 12.87 31.4 22.82 69.35 28.55 93.74" style="stroke:#1a83af;stroke-width:2"/><path fill="#1A83AF" d="m333.69 205.13 1.865-9.67-2.993 4.799-4.8-2.994 5.928 7.865z" style="stroke:#1a83af;stroke-width:2"/><path fill="none" d="M162.48 42.22c-38.66 10.97-79.3 30.35-102.63 64.57C6 185.79 136.11 265.8 210.42 303.3" style="stroke:#1a83af;stroke-width:2"/><path fill="#1A83AF" d="m214.67 305.93-6.27-7.595 1.795 5.365-5.364 1.795 9.839.435z" style="stroke:#1a83af;stroke-width:2"/><path fill="none" d="M245.24 47.22c-12.66 15.67-30.56 37.83-44.12 54.61" style="stroke:#1a83af;stroke-width:2"/><path fill="#1A83AF" d="m197.43 105.41 8.77-4.482-5.626.594-.594-5.625-2.55 9.513z" style="stroke:#1a83af;stroke-width:2"/><path fill="none" d="M307.08 47.22c39.26 16.41 95.55 39.93 136.25 56.94" style="stroke:#1a83af;stroke-width:2"/><path fill="#1A83AF" d="m447.71 106.41-6.761-7.161 2.148 5.233-5.233 2.148 9.846-.22z" style="stroke:#1a83af;stroke-width:2"/></svg>
